X:1
T:Judah’s Star Is Risen
T:Charles King Langley, Sr.
T:Judah’s Star Is Risen
T:Public Domain
T:Public Domain
C:Charles King Langley, Sr.
Z:Public Domain
%%score ( 1 2 ) ( 3 4 )
L:1/8
M:6/8
K:Bb
V:1 treble 
V:2 treble 
V:3 bass 
V:4 bass 
V:1
 [DF] | [DB]2 [DF] ([B,D][CE])[DF] | [EG]3 [DF]2 [FB] | [FA]2 [Fc] [FB]2 [Fd] | [Fc]3- [Fc]2 [EF] | %5
w: 1.~O|dawn of peace * and|glad- ness, That|breaks from sea to|sea! * Be-|
w: 2.~O|dawn of peace * and|glad- ness, That|thrills the heart of|earth! * When|
w: 3.~O|dawn of peace * and|glad- ness, We|read the ho- ly|sign; * The|
 [DB]2 [DF] ([B,D][CE])[DF] | [EG]2 [DF] [DB]2 [FB] | [FA]2 [FA] (GA)[_EG] | F3- F2"^Duet" F | %9
w: hold it shine * with|joy di- vine On|an- cient Gal- * i-|For * Ju-|
w: bells of joy * their|tones em- ploy To|tell a Sav- * ior’s|When * hill|
w: tid- ings sweet * our|tongues re- peat In|songs of praise * di-|For * Ju-|
 [FA]2 [FA] ([GB][FA])[GB] | [Ac]3 [FA]2 F | [ce]2 [ce] ([ce][Bd])[Ac] | %12
w: is ris- en! * Her|night is passed|way! The Lord, * the|
w: and val- ley * Re-|peat the an-|cry, And sing * in|
w: is ris- en! * Let|Zi- on’s host|claim; All hail * the|
 [Bd]3- [Bd]2"^Harmony" [DF] | [DB]2 [DF] ([B,D][CE])[DF] | [EG]3 [DF]2 [FB] | %15
w: King * Im-|man- uel, Is * born|this ho- ly|
w: might- * y|chor- us, “All * praise|to God most|
w: Son * of|Da- vid, O * mag-|ni- fy His|
 [FA]2 [FB] ([Fd][DB])[Ec] | [DB]3- [DB]2 |] %17
w: day! * * * *||
w: high!” * * * *||
w: name! * * * *||
V:2
 x | x6 | x6 | x6 | x6 | x6 | x6 | x3 =E2 x | F3- F2 F | x6 | x5 F | x6 | x6 | x6 | x6 | x6 | x5 |] %17
w: |||||||lee;|dah’s * star||a-|||||||
w: |||||||birth,|and * plain||gels’|||||||
w: |||||||vine;|dah’s * star||pro-|||||||
V:3
 [B,,B,] | [B,,F,]2 [B,,B,] [B,,F,]2 [B,,B,] | [B,,B,]3 [B,,B,]2 [D,B,] | %3
 [F,C]2 [E,A,] [D,B,]2 [A,,B,] | [F,A,]3- [F,A,]2 [F,A,] | [B,,B,]2 [B,,B,] [B,,F,]2 [B,,B,] | %6
 [B,,B,]2 [B,,B,] [B,,B,]2 [D,B,] | [C,C]2 [C,C] (B,C)[C,B,] | [F,A,]3- [F,A,]2 z | F,,3 F,3 | %10
 F,,3 F,3 | F,,3 F,3 | (B,,D,F, B,2) [B,,B,] | [B,,F,]2 [B,,B,] [B,,F,]2 [B,,B,] | %14
 [B,,B,]3 [B,,B,]2 [D,B,] | [F,C]2 [F,D] [F,B,]2 [F,A,] | [B,,B,]3- [B,,B,]2 |] %17
V:4
 x | x6 | x6 | x6 | x6 | x6 | x6 | x3 C,2 x | x6 | x6 | x6 | x6 | x6 | x6 | x6 | x6 | x5 |] %17

